X: 40
T: Another Jig Will Do
B: begged borrowed and stolen
M:9/8
L:1/8
R: slip jig
Q: 3/8=100
K:Dmajor
V:1 
|:"D"ABA A2G F2G|"D"ABA AGF "C"G2F|"D"ABA A2G F2G|"C"A2d "D"d2c "G"d3:|
 |:"D"A2g f2d e2c|"C"A2B =c2B c2d|"D"A2g f2d e2c|"C"A2d "G"d2c "D"d3|
 "D"A2g f2d e2c|"C"A2B =c2B c2d|"D"d2A A2G F2G|"C"A2d "G"d2c "D"d3:|
% abcbook-tune_id 62828a3a91b5e2da7c5bca17


% abcbook-boost 0
% abcbook-tablature 
% abcbook-transpose 
% abcbook-lastupdated 1652725431070
% abcbook-soundfonts 
% abcbook-repeats 3
% abc-sessionorg_id 276
% abc-sessionorg_setting 0
% abc-sessionorg_setting_id 276
% abc-boost 0

